SVG/Up.svg

<svg height="46" viewBox="0 0 34 46" width="34" xmlns="http://www.w3.org/2000/svg" xmlns:xlink="http://www.w3.org/1999/xlink"><filter id="a" height="198.2%" width="167.5%" x="-33.8%" y="-49.1%"><feOffset dx="0" dy="1" in="SourceAlpha" result="shadowOffsetOuter1"/><feGaussianBlur in="shadowOffsetOuter1" result="shadowBlurOuter1" stdDeviation=".9"/><feColorMatrix in="shadowBlurOuter1" result="shadowMatrixOuter1" type="matrix" values="0 0 0 0 0   0 0 0 0 0   0 0 0 0 0  0 0 0 0.65 0"/><feMerge><feMergeNode in="shadowMatrixOuter1"/><feMergeNode in="SourceGraphic"/></feMerge></filter><g fill="none" filter="url(#a)" transform="translate(5 4)"><path d="m2.53 5.96h3.47v1.06h-6v3.98h16v-3.98h-6.01v-1.06h3.47l-5.47-5.96z" fill="#fff"/><path d="m15 8.02h-6v-3.04h2.24l-3.25-3.32-3.22 3.32h2.25v3.04h-6v1.96h13.98z" fill="#000"/></g></svg>

<svg width="24" height="24" viewBox="0 0 24 24" xmlns="http://www.w3.org/2000/svg"><defs><filter x="-20%" y="-20%" width="140%" height="158.2%" filterUnits="objectBoundingBox" id="a"><feOffset dy="1" in="SourceAlpha" result="shadowOffsetOuter1"/><feGaussianBlur stdDeviation=".9" in="shadowOffsetOuter1" result="shadowBlurOuter1"/><feColorMatrix values="0 0 0 0 0 0 0 0 0 0 0 0 0 0 0 0 0 0 0.65 0" in="shadowBlurOuter1" result="shadowMatrixOuter1"/><feMerge><feMergeNode in="shadowMatrixOuter1"/><feMergeNode in="SourceGraphic"/></feMerge></filter></defs><g filter="url(#a)" transform="translate(4 3)" fill="none"><path fill="#FFF" d="M2.53 5.96H6v1.06H0V11h16V7.02H9.99V5.96h3.47L7.99 0z"/><path fill="#000" d="M15 8.02H9V4.98h2.24L7.99 1.66 4.77 4.98h2.25v3.04h-6v1.96H15z"/></g></svg>
